X: 25738
T: Mary McMahon
R: reel
M: 4/4
K: Dmajor
ag]|f2ef dBAG|FGAB BAG2|Adde f2ed|cd ef g2ag|
f2ef dBAG|FGAB BAG2|Adde f2ed|Addc d2z2||
~f3g ~a3z|abag fdd2|~f3g a3z|abaf gbag|
f3g a3z|b2ag fdd2|bgaf gfed|cdef g2||

